!!!COM:	Josquin des Prez
!!!CDT:	~1450-1521/08/27
!!!OTL@@LAT:	Ave Maria...virgo serena
!!!AGN:	Motet
!!!SCT:	NJE 23.6
!!!SCA:	New Josquin Edition 23.6
!!!voices:	4
**kern	**kern	**kern	**kern
*staff4	*staff3	*staff2	*staff1
*Ivox	*Ivox	*Ivox	*Ivox
*I"Bassus	*I"Tenor	*I"Altus	*I"Superius
*I'B	*I'T	*I'A	*I'S
*clefF4	*clefGv2	*clefGv2	*clefG2
*k[]	*k[]	*k[]	*k[]
*M2/1	*M2/1	*M2/1	*M2/1
*met(C|)	*met(C|)	*met(C|)	*met(C|)
=1-	=1-	=1-	=1-
0r	0r	0r	1g
.	.	.	[1cc
=2	=2	=2	=2
0r	0r	0r	1cc]
.	.	.	1cc
=3	=3	=3	=3
0r	0r	1G	1dd
.	.	[1c	1ee
=4	=4	=4	=4
0r	0r	1c]	0cc
.	.	1c	.
=5	=5	=5	=5
0r	1G	1d	0r
.	[1c	1e	.
=6	=6	=6	=6
0r	1c]	0c	0r
.	1c	.	.
=7	=7	=7	=7
!!linebreak:default
1GG	1d	0r	0r
[1C	1e	.	.
=8	=8	=8	=8
1C]	0c	0r	1.cc
1C	.	.	.
.	.	.	2b\
=9	=9	=9	=9
1D	0r	0r	1a
1E	.	.	1g
=10	=10	=10	=10
0C	0r	1.c	2a/
.	.	.	2g/
.	.	.	[1cc
.	.	2B\	.
=11	=11	=11	=11
0r	0r	1A	2cc\]
.	.	.	4b\
.	.	.	4a/
.	.	1G	1b
=12	=12	=12	=12
0r	1.c	2.A/	0cc
.	.	4G/	.
.	.	[1c	.
.	2B\	.	.
=13	=13	=13	=13
0r	1A	2c\]	0r
.	.	4B\	.
.	.	4A/	.
.	1G	1B	.
=14	=14	=14	=14
!!linebreak:default
1.C	2A/	0c	0r
.	2G/	.	.
.	[1c	.	.
2BB/	.	.	.
=15	=15	=15	=15
1AA	2c\]	0r	0r
.	4B\	.	.
.	4A/	.	.
1GG	1B	.	.
=16	=16	=16	=16
1.AA	0c	0r	1r
.	.	.	[1cc
2BB/	.	.	.
=17	=17	=17	=17
0C	0r	0r	2cc\]
.	.	.	2cc\
.	.	.	1cc
=18	=18	=18	=18
0r	0r	1r	1dd
.	.	[1c	1ee
=19	=19	=19	=19
0r	0r	2c\]	2.cc\
.	.	2c\	.
.	.	.	4b\
.	.	1c	2a/
.	.	.	2g/
=20	=20	=20	=20
0r	1r	1d	1f
.	[1c	1e	2e/
.	.	.	[2cc\
=21	=21	=21	=21
!!pagebreak:default
0r	2c\]	0c	4cc\]
.	.	.	4b\
.	2c\	.	1a
.	1c	.	.
.	.	.	2g/
=22	=22	=22	=22
1r	1d	0r	1f
[1C	1e	.	1e
=23	=23	=23	=23
2C/]	2c\	0c	0r
2C/	2.e\	.	.
1C	.	.	.
.	4d\	.	.
.	[2g\	.	.
=24	=24	=24	=24
1D	2g\]	1A	0r
.	2f#i\	.	.
1E	1g	1G	.
=25	=25	=25	=25
0C	0r	2.A/	0cc
.	.	4B\	.
.	.	[1c	.
=26	=26	=26	=26
0r	0c	2c\]	1a
.	.	2d\	.
.	.	[1e	1g
=27	=27	=27	=27
0r	1A	2e\]	1cc
.	.	4d\	.
.	.	4c\	.
.	1G	2.g\	1dd
.	.	4f\	.
=28	=28	=28	=28
!!linebreak:default
0C	2.g\	4e\	1ee
.	.	4d\	.
.	.	1.c	.
.	4f\	.	.
.	4e\	.	2r
.	4d\	.	.
.	[2c\	.	[2ee\
=29	=29	=29	=29
1AA	4c\]	2e\	4ee\]
.	4B\	.	4dd\
.	2c\	2f\	1cc
1GG	1d	1g	.
.	.	.	2b\
=30	=30	=30	=30
1.AA	[0c	0e	0cc
2BB/	.	.	.
=31	=31	=31	=31
0C	0c]	1r	1r
.	.	1c	1cc
=32	=32	=32	=32
0r	0r	1e	1cc
.	.	1f	1dd
=33	=33	=33	=33
0r	0r	1g	1ee
.	.	2g\	2ee\
.	.	[2a\	[2ff\
=34	=34	=34	=34
0r	0r	2a\]	4ff\]
.	.	.	4ee\
.	.	2g\	1ee
.	.	1f	.
.	.	.	2dd\
=35	=35	=35	=35
!!linebreak:default
1r	1r	0e	0ee
1C	1c	.	.
=36	=36	=36	=36
1E	1c	1r	0r
1F	1d	1A	.
=37	=37	=37	=37
1G	1e	1.B	0r
2G\	2e\	.	.
[2A\	[2f\	[2c\	.
=38	=38	=38	=38
2A\]	2f\]	4c\]	0r
.	.	4B\	.
2G\	1e	1B	.
1F	.	.	.
.	2d\	2A/	.
=39	=39	=39	=39
0E	0e	0B	0r
=40	=40	=40	=40
1r	1r	1r	1r
1C	1g	1c	1ee
=41	=41	=41	=41
1C	1g	1c	1ee
1C	1g	1c	1ee
=42	=42	=42	=42
!!pagebreak:default
2.F\	1.a	1.c	1.ff
4E\	.	.	.
2F\	.	.	.
2C/	2g\	4d\	2ee\
.	.	4e\	.
=43	=43	=43	=43
2D\	1f	2f\	1dd
2BB/	.	2d\	.
1C	1e	[1g	1cc
=44	=44	=44	=44
1.G	1d	0g]	1b
.	2B\	.	1g
2E\	[2c\	.	.
=45	=45	=45	=45
1F	2c\]	2f\	1a
.	1d	2a\	.
1G	.	1g	1b
.	[2e\	.	.
=46	=46	=46	=46
1.A	2e\]	1c	1cc
.	1c	.	.
.	.	1a	1a
2F\	[2d\	.	.
=47	=47	=47	=47
1G	2d\]	2g\	1b
.	1e	2b\	.
1A	.	1a	1cc
.	[2f\	.	.
=48	=48	=48	=48
1.B-i	2f\]	2.d\	1dd
.	1d	.	.
.	.	4e\	.
.	.	2f\	1b
2G\	[2e\	2g\	.
=49	=49	=49	=49
!!linebreak:default
1A	2e\]	1c	1cc
.	1f	.	.
1B	.	2r	1dd
.	[2g\	2d\	.
=50	=50	=50	=50
2.c\	2g\]	2c\	2.ee\
.	2.a\	2.A/	.
4B\	.	.	4dd\
2c\	.	.	2ee\
.	4g\	4B\	.
2A\	2a\	2c\	[2ff\
=51	=51	=51	=51
2.B\	2f\	2d\	4ff\]
.	.	.	4ee\
.	2.g\	2.G/	4dd\
4A\	.	.	4cc\
2B\	.	.	2dd\
.	4f\	4A/	.
2G\	2g\	2B\	[2ee\
=52	=52	=52	=52
2A\	2e\	2c\	4ee\]
.	.	.	4dd\
2F\	2f\	2A/	1cc
1G	1d	1G	.
.	.	.	2b\
=53	=53	=53	=53
[0C	[0c	2G/	0cc
.	.	2.g\	.
.	.	4f\	.
.	.	4e\	.
.	.	4d\	.
=54	=54	=54	=54
0C]	0c]	1e	1r
.	.	1r	1g
=55	=55	=55	=55
0r	0r	1c	1.cc
.	.	[1f	.
.	.	.	2b\
=56	=56	=56	=56
!!linebreak:default
0r	0r	2f\]	1cc
.	.	2e\	.
.	.	1f	1dd
=57	=57	=57	=57
0r	0r	1g	1.b
.	.	[1e	.
.	.	.	4a/
.	.	.	4g/
=58	=58	=58	=58
0r	0r	2e\]	1g
.	.	4d\	.
.	.	4c\	.
.	.	1c	2g/
.	.	.	[2a/
=59	=59	=59	=59
0r	1r	2B\	4a/]
.	.	.	4g/
.	.	2c\	1cc
.	1G	1d	.
.	.	.	2b\
=60	=60	=60	=60
1C	1.c	1c	0cc
[1F	.	1r	.
.	2B\	.	.
=61	=61	=61	=61
2F\]	1c	0r	0r
2E\	.	.	.
1F	1d	.	.
=62	=62	=62	=62
1G	1.B	0r	0r
[1E	.	.	.
.	4A/	.	.
.	4G/	.	.
=63	=63	=63	=63
!!pagebreak:default
2E\]	1G	0r	0r
4D\	.	.	.
4C/	.	.	.
1C	2G/	.	.
.	[2A/	.	.
=64	=64	=64	=64
2BB/	4A/]	0r	1r
.	4G/	.	.
2C/	1c	.	.
1D	.	.	1dd
.	2B\	.	.
=65	=65	=65	=65
0C	0c	0r	1ee
.	.	.	1cc
=66	=66	=66	=66
0r	0r	1r	1dd
.	.	1g	1b
=67	=67	=67	=67
0r	1r	1a	2.cc\
.	.	.	4b\
.	1d	1f	1a
=68	=68	=68	=68
0r	1e	1g	0g
.	1c	1e	.
=69	=69	=69	=69
1r	1d	2.f\	0r
.	.	4e\	.
1G	1B	1d	.
=70	=70	=70	=70
!!linebreak:default
1A	2.c\	2.c\	0r
.	4B\	4B\	.
1F	1A	2c\	.
.	.	[2d\	.
=71	=71	=71	=71
1G	1G	4d\]	1r
.	.	4B\	.
.	.	1B	.
1E	1g	.	1g
.	.	[2c\	.
=72	=72	=72	=72
2.F\	1a	4c\]	1cc
.	.	4B\	.
.	.	1A	.
4E\	.	.	.
1D	1f	.	1dd
.	.	4G/	.
.	.	4F/	.
=73	=73	=73	=73
1C	1g	1c	1ee
1G	2r	1B	2dd\
.	2g\	.	[2ee\
=74	=74	=74	=74
1A	2e\	1c	4ee\]
.	.	.	4cc\
.	2.f\	.	1cc
1F	.	1A	.
.	4e\	.	.
.	4d\	.	[2dd\
.	4c\	.	.
=75	=75	=75	=75
1G	2B\	0G	4dd\]
.	.	.	4b\
.	2G/	.	1b
1E	1g	.	.
.	.	.	2ee\
=76	=76	=76	=76
1F	2f\	0r	4dd\
.	.	.	4cc\
.	2e\	.	1cc
1G	1d	.	.
.	.	.	2b\
=77	=77	=77	=77
!!linebreak:default
0C	0c	0r	1cc
.	.	.	1r
=78	=78	=78	=78
0r	0r	1c	1cc
.	.	2c\	2cc\
.	.	2c\	2cc\
=79	=79	=79	=79
0r	0r	1.g	1dd
.	.	.	2b\
.	.	[2a\	[2cc\
=80	=80	=80	=80
0r	0r	4a\]	2cc\]
.	.	4g\	.
.	.	1g	2b\
.	.	.	1a
.	.	2f#i\	.
=81	=81	=81	=81
1C	1c	0g	0g
2C/	2c\	.	.
2C/	2c\	.	.
=82	=82	=82	=82
1G	1d	0r	0r
2G\	2B\	.	.
[2A\	[2c\	.	.
=83	=83	=83	=83
4A\]	2c\]	0r	0r
4G\	.	.	.
1G	2B\	.	.
.	1A	.	.
2F#i\	.	.	.
=84	=84	=84	=84
!!pagebreak:default
0G	0G	2.g\	1b
.	.	4f\	.
.	.	2e\	2b\
.	.	2d\	2b\
=85	=85	=85	=85
0r	0r	1c	1cc
.	.	2d\	2b\
.	.	[2f\	[2a/
=86	=86	=86	=86
0r	0r	4f\]	2a/]
.	.	4e\	.
.	.	1e	2g/
.	.	.	1f
.	.	2d\	.
=87	=87	=87	=87
0r	0r	1.e	1e
.	.	.	2r
.	.	4d\	[2e/
.	.	4c\	.
=88	=88	=88	=88
1r	1r	1g	2e/]
.	.	.	4d/
.	.	.	4c/
1C	1e	1c	1g
=89	=89	=89	=89
1.G	1e	0r	0r
.	1d	.	.
[2F\	.	.	.
=90	=90	=90	=90
2F\]	1f	0r	0r
4E\	.	.	.
4D\	.	.	.
2C/	1e	.	.
[2G\	.	.	.
=91	=91	=91	=91
!!linebreak:default
2G\]	2.d\	0r	0r
1F	.	.	.
.	4c\	.	.
.	2d\	.	.
4E\	[2e\	.	.
4D\	.	.	.
=92	=92	=92	=92
2C/	4e\]	0r	0r
.	4d\	.	.
2E\	1c	.	.
1D	.	.	.
.	2B\	.	.
=93	=93	=93	=93
*	*M2/1	*	*
*	*met(3)	*	*
0C	3%4.c	0r	0r
=94	=94	=94	=94
*M2/1	*	*	*
*met(3)	*	*	*
3%2c	3%2r	3%2eV	3%2gV
3%2c	3%2c	3%2e	3%2g
3%2c	3%2c	3%2eZ	3%2gZ
=95	=95	=95	=95
3%4F	3%2c	3%2.fV	3%4aV
.	3%4d	.	.
.	.	3e\	.
3%2F	.	3d\	3%2aZ
.	.	3c\Z	.
=96	=96	=96	=96
3%4G	3%2d	3%4BV	3%4bV
.	3%4e	.	.
3%2G	.	3%2BZ	3%2bZ
=97	=97	=97	=97
3%4C	3%2e	3%4cV	3%4gV
.	3%4c	.	.
3%2r	.	3%2rZ	3%2rZ
=98	=98	=98	=98
!!linebreak:default
3%2c	3%2r	3%2eV	3%2gV
3%2c	3%2c	3%2e	3%2g
3%2c	3%2c	3%2eZ	3%2gZ
=99	=99	=99	=99
3%4F	3%2c	3%2.fV	3%4aV
.	3%4d	.	.
.	.	3e\	.
3%2F	.	3d\	3%2aZ
.	.	3c\Z	.
=100	=100	=100	=100
3%4G	3%2d	3%4BV	3%4bV
.	3%4e	.	.
3%2G	.	3%2BZ	3%2bZ
=101	=101	=101	=101
3%4C	3%2e	3%4cV	3%4gV
.	3%4c	.	.
3%2c	.	3%2gZ	3%2gZ
=102	=102	=102	=102
3%4A	3%2c	3%4aV	3%4ccV
.	3%4f	.	.
3%2A	.	3%2aZ	3%2ccZ
=103	=103	=103	=103
3%4d	3%2f	3%4fV	3%4aV
.	3%4d	.	.
3%2d	.	3%2fZ	3%2aZ
=104	=104	=104	=104
3%4G	3%2d	3%4gV	3%2.ddV
.	3%2.g	.	.
.	.	.	3cc\
3%2G	.	3%2dZ	3b\
.	3f\	.	3a/Z
=105	=105	=105	=105
!!pagebreak:default
3%4c	3e\	3%4eV	3%4gV
.	3d\	.	.
.	3%4c	.	.
3%2c	.	3%2gZ	3%2gZ
=106	=106	=106	=106
3%4A	3%2c	3%2.aV	3%4ccV
.	3%4f	.	.
.	.	3g\	.
3%2A	.	3f\	3%2ccZ
.	.	3e\Z	.
=107	=107	=107	=107
3%2B	3%2f	3%2dV	3%2ddV
3%2G	3%2g	3%2B	3%2.ee
3%2A	3%2e	3%2cZ	.
.	.	.	3dd\Z
=108	=108	=108	=108
3%2F	3%2f	3%2A\V	3%4ccV
3%4G	3%4d	3%4G\Z	.
.	.	.	3%2bZ
=109	=109	=109	=109
*M2/1	*M2/1	*	*
*met(C|)	*met(C|)	*	*
[0C	[0c	1g	0cc
.	.	[1e	.
=110	=110	=110	=110
0C]	0c]	2e\]	0r
.	.	4d\	.
.	.	4c\	.
.	.	1c	.
=111	=111	=111	=111
0r	0r	1r	0dd
.	.	1g	.
=112	=112	=112	=112
!!linebreak:default
0r	0r	1g	1dd
.	.	1f	1dd
=113	=113	=113	=113
0r	0r	2e\	1.ee
.	.	4d\	.
.	.	4c\	.
.	.	1g	.
.	.	.	4dd\
.	.	.	4cc\
=114	=114	=114	=114
1r	0d	0G	1b
1G	.	.	2b\
.	.	.	[2dd\
=115	=115	=115	=115
1G	1d	1r	2dd\]
.	.	.	4cc\
.	.	.	4b\
1F	1d	1A	2a/
.	.	.	2a/
=116	=116	=116	=116
1E	1.e	2B\	0g
.	.	1c	.
1C	.	.	.
.	4d\	2c\	.
.	4c\	.	.
=117	=117	=117	=117
1.G	1B	4d\	0r
.	.	4c\	.
.	.	4B\	.
.	.	4A/	.
.	2B\	1G	.
4F\	[2d\	.	.
4E\	.	.	.
=118	=118	=118	=118
2F\	2d\]	0r	0r
1G	4c\	.	.
.	4B\	.	.
.	1A	.	.
2F#i\	.	.	.
=119	=119	=119	=119
!!linebreak:default
0G	0G	1r	0dd
.	.	1g	.
=120	=120	=120	=120
0r	0r	1g	1dd
.	.	1f	1dd
=121	=121	=121	=121
0r	0r	2e\	1.ee
.	.	4d\	.
.	.	4c\	.
.	.	1g	.
.	.	.	4dd\
.	.	.	4cc\
=122	=122	=122	=122
1r	0d	0G	1b
1G	.	.	2b\
.	.	.	[2dd\
=123	=123	=123	=123
1G	1d	1r	2dd\]
.	.	.	4cc\
.	.	.	4b\
1F	1d	1A	1a
=124	=124	=124	=124
1E	1.e	2B\	0g
.	.	1.c	.
1C	.	.	.
.	4d\	.	.
.	4c\	.	.
=125	=125	=125	=125
1.G	1B	4d\	0r
.	.	4c\	.
.	.	4B\	.
.	.	4A/	.
.	2B\	1G	.
4F\	[2d\	.	.
4E\	.	.	.
=126	=126	=126	=126
!!pagebreak:default
2F\	2d\]	0r	0r
1G	4c\	.	.
.	4B\	.	.
.	1A	.	.
2F#i\	.	.	.
=127	=127	=127	=127
0G	0G	2r	1r
.	.	1g	.
.	.	.	1g
.	.	4f\	.
.	.	4e\	.
=128	=128	=128	=128
0r	0r	2f\	1a
.	.	1d	.
.	.	.	1b
.	.	[2e\	.
=129	=129	=129	=129
1r	1r	2e\]	1.cc
.	.	4d\	.
.	.	4c\	.
1G	1G	1d	.
.	.	.	2b\
=130	=130	=130	=130
2.F\	1A	2r	1cc
.	.	1f	.
4E\	.	.	.
1D	1B	.	1dd
.	.	4e\	.
.	.	4d\	.
=131	=131	=131	=131
2.C/	1.c	2.g\	0ee
4D\	.	4f\	.
4E\	.	2g\	.
4F\	.	.	.
2G\	2B\	[2e\	.
=132	=132	=132	=132
2A\	1c	4e\]	0r
.	.	4d\	.
2E\	.	4c\	.
.	.	4B\	.
1F	1d	1A	.
=133	=133	=133	=133
!!linebreak:default
0E	0e	2B\	1r
.	.	2G/	.
.	.	1g	1ee
=134	=134	=134	=134
0r	0r	2r	1ee
.	.	2.g\	.
.	.	.	1dd
.	.	4f\	.
.	.	2d\	.
=135	=135	=135	=135
0r	0r	2e\	1.cc
.	.	2.f\	.
.	.	4e\	.
.	.	4d\	[2dd\
.	.	4c\	.
=136	=136	=136	=136
0r	1r	1B	1dd]
.	1e	1c	[1cc
=137	=137	=137	=137
1r	1e	1G	2cc\]
.	.	.	1.b
1G	1d	2r	.
.	.	[2g\	.
=138	=138	=138	=138
2E\	1.c	4g\]	1cc
.	.	4f\	.
2.A\	.	4e\	.
.	.	4d\	.
.	.	2e\	1r
4G\	.	.	.
4F\	[2d\	[2A/	.
4E\	.	.	.
=139	=139	=139	=139
2F\	1d]	2A/]	0r
2G\	.	2B\	.
2E\	[1c	2G/	.
[2F\	.	[2A/	.
=140	=140	=140	=140
!!linebreak:default
4F\]	2c\]	2A/]	0r
4E\	.	.	.
4D\	1.B	1G	.
4C/	.	.	.
1D	.	.	.
.	.	2F/	.
=141	=141	=141	=141
0C	0c	0G	0r
=142	=142	=142	=142
0r	0r	0r	0r
=143	=143	=143	=143
0C	0c	0g	0cc
=144	=144	=144	=144
1G	1B	1g	1dd
1G	1B	1g	1ee
=145	=145	=145	=145
1.F	1.A	0a	0ff
4E\	2B\	.	.
4D\	.	.	.
=146	=146	=146	=146
0C	0c	0g	0ee
=147	=147	=147	=147
!!pagebreak:default
1r	1r	1r	1r
1C	1c	1g	1ee
=148	=148	=148	=148
1c	1c	1g	1ee
1G	1B	1g	1dd
=149	=149	=149	=149
0A	0c	1e	0cc
.	.	1f	.
=150	=150	=150	=150
00G;	00d;	00g;	00b;
=151	=151	=151	=151
00C;	00c;	00g;	00cc;
=152	=152	=152	=152
00C	00c	00g	00cc
==	==	==	==
*-	*-	*-	*-
!!!RDF**kern: %=rational rhythm
!!!rscale-alt: 1/4
!!!RDF**kern: V=start of tuplet marker
!!!RDF**kern: Z=end of tuplet marker
!!!RDF**kern: l=long note in original notation
!!!RDF**kern: i=musica ficta
!!!ENC:	Jesse Rodin; Victoria Chang 2011/05/17
!!!END:	2011/05/17/
!!!EED:	Jesse Rodin
!!!EEV:	2011/08/17/
!!!ONB:	Translated from MusicXML and edited on 2011/08/17/ by Craig Sapp
!!muse2ps: C^@{COM}\n@{SCT}^i2I150v90,90,90,120c90Q16
